img/icons/twitter.svg

<?xml version="1.0" encoding="UTF-8"?>
<svg width="23px" height="19px" viewBox="0 0 23 19" version="1.1" xmlns="http://www.w3.org/2000/svg" xmlns:xlink="http://www.w3.org/1999/xlink">
    <!-- Generator: Sketch 48.2 (47327) - http://www.bohemiancoding.com/sketch -->
    <title>003-twitter-logo-silhouette</title>
    <desc>Created with Sketch.</desc>
    <defs></defs>
    <g id="Footer" stroke="none" stroke-width="1" fill="none" fill-rule="evenodd" transform="translate(-1120.000000, -145.000000)" opacity="0.5">
        <g fill="#FFFFFF" fill-rule="nonzero" id="Social-media">
            <g transform="translate(1083.000000, 142.000000)">
                <g id="003-twitter-logo-silhouette" transform="translate(37.000000, 3.000000)">
                    <path d="M22.545454,2.17904939 C21.715656,2.54607311 20.8252948,2.7949844 19.8898058,2.90611011 C20.8450036,2.33514754 21.5761836,1.42952082 21.9227279,0.353712175 C21.0267303,0.882460211 20.0377143,1.26639917 18.9838985,1.47453004 C18.1400281,0.57592682 16.9397037,0.0162165577 15.608343,0.0162165577 C13.0541494,0.0162165577 10.9831726,2.08344156 10.9831726,4.63161069 C10.9831726,4.99300826 11.0240271,5.34598499 11.1029361,5.68351738 C7.25967302,5.49083085 3.85173609,3.65284398 1.57085082,0.8599556 C1.17214257,1.54060976 0.945324991,2.33371343 0.945324991,3.1803207 C0.945324991,4.7820827 1.76245034,6.19538696 3.00222928,7.02224754 C2.24426732,6.99694824 1.53139628,6.78881737 0.907307166,6.44286413 L0.907307166,6.50052301 C0.907307166,8.73649582 2.50210332,10.6026134 4.61673428,11.0273328 C4.22929876,11.1313983 3.82075451,11.1890571 3.39810092,11.1890571 C3.09944734,11.1890571 2.81062976,11.159529 2.52744854,11.1032675 C3.11631959,12.9384597 4.82384301,14.2729978 6.84692912,14.3095862 C5.26480557,15.5471191 3.26990128,16.2826007 1.10314317,16.2826007 C0.729816975,16.2826007 0.362090306,16.2600961 3.68389771e-05,16.2193157 C2.04706828,17.531386 4.47729876,18.2963956 7.08925591,18.2963956 C15.597144,18.2963956 20.2476965,11.2621971 20.2476965,5.16179284 L20.2321872,4.56413363 C21.1408575,3.91719962 21.9269644,3.10438603 22.545454,2.17904939 Z" id="Shape"></path>
                </g>
            </g>
        </g>
    </g>
</svg>

<svg xmlns="http://www.w3.org/2000/svg" width="23" height="19" viewBox="0 0 23 19"><path fill="#FFF" d="M22.545 2.179a9.25 9.25 0 0 1-2.655.727A4.637 4.637 0 0 0 21.923.354a9.334 9.334 0 0 1-2.94 1.12A4.616 4.616 0 0 0 15.609.017a4.621 4.621 0 0 0-4.505 5.668A13.138 13.138 0 0 1 1.57.86a4.575 4.575 0 0 0-.626 2.32c0 1.602.817 3.015 2.057 3.842a4.632 4.632 0 0 1-2.095-.58v.059a4.623 4.623 0 0 0 3.71 4.526 4.693 4.693 0 0 1-1.219.162c-.299 0-.587-.03-.87-.086a4.626 4.626 0 0 0 4.319 3.207 9.29 9.29 0 0 1-5.744 1.973 9.81 9.81 0 0 1-1.103-.064 13.09 13.09 0 0 0 7.09 2.077c8.507 0 13.158-7.034 13.158-13.134l-.016-.598a9.227 9.227 0 0 0 2.313-2.385z" opacity=".5"/></svg>
